dist/assets/images/logo-outline.svg

<?xml version="1.0" encoding="UTF-8"?>
<svg width="240px" height="240px" viewBox="0 0 240 240" version="1.1" xmlns="http://www.w3.org/2000/svg" xmlns:xlink="http://www.w3.org/1999/xlink">
    <!-- Generator: Sketch 48.2 (47327) - http://www.bohemiancoding.com/sketch -->
    <title>josh-ds-1</title>
    <desc>Created with Sketch.</desc>
    <defs></defs>
    <g id="Page-1" stroke="none" stroke-width="1" fill="none" fill-rule="evenodd">
        <g id="josh-ds-1" fill="#000000">
            <g id="Page-1">
                <path d="M182.3853,113.7305 C182.3853,107.0825 182.2833,100.4325 182.4253,93.7875 C182.5043,90.1115 181.2173,89.8665 178.3743,91.5275 C174.2173,93.9585 169.8433,96.0335 165.8003,98.6295 C164.7643,99.2945 163.7533,101.7625 164.2003,102.7035 C169.3393,113.5005 174.7483,124.1675 180.1363,134.8445 C180.4533,135.4725 181.2043,135.8805 181.7533,136.3915 C181.9643,135.6515 182.3523,134.9145 182.3573,134.1735 C182.4043,127.3595 182.3853,120.5445 182.3853,113.7305 M179.2553,83.2155 C177.4223,81.8065 176.6193,81.0435 175.6903,80.4965 C163.3773,73.2435 151.0543,66.0065 138.7043,58.8155 C137.8173,58.2985 136.7073,58.1645 135.7013,57.8525 C136.1613,58.8675 136.4943,59.9665 137.1013,60.8835 C143.6143,70.7255 150.1653,80.5405 156.7223,90.3525 C157.2733,91.1765 158.2763,92.6915 158.5073,92.5905 C165.2113,89.6845 171.8433,86.6135 179.2553,83.2155 M107.4553,56.7575 C106.4353,57.2415 106.1263,57.3675 105.8373,57.5285 C92.3203,65.0605 78.7903,72.5695 65.3533,80.2415 C64.9153,80.4915 65.0053,83.0945 65.5623,83.4365 C70.6683,86.5615 75.8783,89.5315 81.2003,92.2705 C82.0893,92.7285 84.2893,92.2945 84.8263,91.5305 C92.3813,80.7725 99.7613,69.8915 107.1373,59.0095 C107.4553,58.5405 107.3273,57.7685 107.4553,56.7575 M94.0743,163.7255 C94.0753,163.7125 94.0753,163.7005 94.0753,163.6885 C87.6083,163.3555 81.1433,162.9975 74.6743,162.7205 C73.7923,162.6825 72.8923,163.0545 72.0013,163.2365 C72.5683,163.7675 73.0573,164.4335 73.7123,164.8105 C87.2483,172.5845 100.7853,180.3585 114.4183,187.9605 C114.9793,188.2725 117.3723,186.9435 117.3963,186.3215 C117.6263,180.3495 117.7233,174.3535 117.3653,168.3945 C117.2923,167.1845 115.2443,165.2405 113.9463,165.0985 C107.3513,164.3765 100.7043,164.1345 94.0743,163.7255 M149.5903,162.2055 C144.7723,162.4795 139.9553,162.7515 135.1383,163.0265 C122.6073,163.7425 125.1823,162.7585 124.8913,173.9145 C124.8013,177.4085 124.9143,180.9065 124.8883,184.4025 C124.8673,187.1125 125.5963,188.1325 128.3773,186.5235 C141.9153,178.6935 155.5143,170.9675 169.0723,163.1705 C169.7213,162.7985 170.1863,162.1065 170.7363,161.5635 C169.9993,161.4035 169.2523,161.0735 168.5253,161.1115 C162.2113,161.4385 155.9013,161.8325 149.5903,162.2055 M57.5813,115.7745 C57.5813,123.5985 57.5513,131.4225 57.6193,139.2465 C57.6283,140.2625 58.1453,141.2745 58.4263,142.2885 C59.0153,141.5355 59.7563,140.8565 60.1713,140.0185 C66.2183,127.7915 72.3123,115.5855 78.0903,103.2325 C78.6303,102.0785 77.6193,99.1905 76.4613,98.4285 C71.7453,95.3295 66.6333,92.8405 61.7823,89.9335 C58.7083,88.0905 57.4453,88.3455 57.5323,92.3035 C57.7053,100.1245 57.5833,107.9505 57.5813,115.7745 M133.9863,155.8015 C149.1863,154.8845 162.9403,153.9835 176.7043,153.2755 C179.9853,153.1065 180.7013,152.3515 179.1033,149.2465 C172.6423,136.6975 166.3783,124.0465 160.0143,111.4475 C159.4993,110.4275 158.7773,109.5125 158.1513,108.5485 C157.3263,109.4695 156.3143,110.2805 155.7033,111.3265 C147.9153,124.6655 140.1653,138.0265 132.4713,151.4195 C131.7743,152.6335 131.5253,154.1055 131.0693,155.4565 C132.5143,155.6275 133.9613,155.7985 133.9863,155.8015 M88.0313,156.0095 C88.0303,156.0225 88.0293,156.0355 88.0293,156.0485 C94.8373,156.4295 101.6493,156.7615 108.4533,157.2095 C111.8583,157.4345 113.2023,156.8335 111.0693,153.2195 C102.8673,139.3275 94.7833,125.3665 86.7763,111.3615 C85.0463,108.3365 84.1223,108.0685 82.4943,111.4395 C76.2783,124.3155 69.9973,137.1645 63.4973,149.8985 C61.4573,153.8945 62.8873,154.7615 66.6043,154.9065 C73.7503,155.1855 80.8893,155.6325 88.0313,156.0095 M120.9213,96.6065 C129.5793,96.6065 138.2383,96.5445 146.8953,96.6365 C150.5073,96.6755 151.4823,95.8545 149.2053,92.4865 C140.7213,79.9405 132.3453,67.3195 124.0493,54.6485 C122.2853,51.9535 121.2403,51.5215 119.2403,54.5055 C110.6213,67.3625 101.8683,80.1295 93.0583,92.8575 C90.5963,96.4135 92.6323,96.6135 95.4463,96.6075 C103.9373,96.5915 112.4293,96.6025 120.9213,96.6065 M121.1513,103.9495 C112.6683,103.9495 104.1823,104.0765 95.7033,103.8935 C91.8123,103.8095 91.5103,104.8705 93.3673,108.0255 C101.9673,122.6405 110.4953,137.2985 118.8833,152.0375 C120.9103,155.6005 121.9173,154.8435 123.6213,151.8655 C132.0433,137.1465 140.5263,122.4605 149.1503,107.8595 C151.2793,104.2535 149.9583,103.8495 146.5993,103.9035 C138.1183,104.0405 129.6343,103.9495 121.1513,103.9495 M189.5773,120.4815 C189.5783,132.1455 189.7743,143.8155 189.4083,155.4675 C189.3373,157.7295 187.6383,160.8815 185.7363,162.0005 C165.0633,174.1545 144.2393,186.0535 123.3183,197.7765 C121.5973,198.7415 118.4033,198.7535 116.6863,197.7935 C95.6123,185.9985 74.6453,174.0085 53.7983,161.8175 C52.1113,160.8315 50.5583,158.0065 50.5393,156.0215 C50.3173,132.0295 50.3033,108.0335 50.5573,84.0425 C50.5793,81.9715 52.3763,79.0425 54.1993,78.0015 C75.4533,65.8565 96.8323,53.9305 118.3133,42.1925 C120.0573,41.2395 123.2763,41.2625 124.9943,42.2495 C145.5003,54.0285 165.8923,66.0065 186.1653,78.1815 C187.8563,79.1965 189.3783,81.9895 189.4273,83.9945 C189.7273,96.1505 189.5763,108.3185 189.5773,120.4815" id="Fill-1"></path>
                <path d="M120,10 C59.346,10 10,59.346 10,120 C10,180.654 59.346,230 120,230 C180.654,230 230,180.654 230,120 C230,59.346 180.654,10 120,10 M120,240 C53.832,240 0,186.168 0,120 C0,53.832 53.832,0 120,0 C186.168,0 240,53.832 240,120 C240,186.168 186.168,240 120,240" id="Fill-3"></path>
            </g>
        </g>
    </g>
</svg>

<svg width="240" height="240" xmlns="http://www.w3.org/2000/svg"><g fill="#000" fill-rule="evenodd"><path d="M182.385 113.73c0-6.648-.102-13.297.04-19.943.08-3.675-1.208-3.92-4.05-2.26-4.158 2.431-8.532 4.507-12.575 7.102-1.036.665-2.047 3.133-1.6 4.075 5.14 10.797 10.548 21.464 15.936 32.14.317.629 1.068 1.037 1.617 1.548.211-.74.6-1.477.604-2.219.047-6.814.028-13.629.028-20.442m-3.13-30.515c-1.833-1.41-2.636-2.172-3.565-2.72a8485.97 8485.97 0 0 0-36.986-21.68c-.887-.518-1.997-.652-3.003-.964.46 1.016.793 2.115 1.4 3.032a7845.924 7845.924 0 0 0 19.621 29.469c.551.824 1.554 2.339 1.785 2.238 6.704-2.906 13.336-5.977 20.748-9.375m-71.8-26.458c-1.02.483-1.329.61-1.618.77C92.32 65.061 78.79 72.57 65.353 80.243c-.438.25-.348 2.852.21 3.194 5.105 3.125 10.315 6.095 15.637 8.834.89.459 3.09.025 3.626-.74 7.555-10.758 14.935-21.639 22.311-32.52.318-.47.19-1.241.318-2.252m-13.38 106.968v-.037c-6.467-.333-12.932-.691-19.4-.969-.883-.037-1.783.334-2.674.517.567.53 1.056 1.197 1.711 1.573 13.536 7.774 27.073 15.548 40.706 23.15.561.313 2.954-1.017 2.978-1.639.23-5.971.327-11.968-.03-17.927-.074-1.21-2.122-3.154-3.42-3.296-6.595-.722-13.242-.964-19.872-1.373m55.516-1.52c-4.818.274-9.635.546-14.452.821-12.53.716-9.956-.268-10.247 10.888-.09 3.495.023 6.993-.003 10.489-.02 2.71.708 3.73 3.49 2.12 13.537-7.83 27.136-15.555 40.694-23.352.65-.373 1.114-1.064 1.664-1.607-.737-.16-1.484-.49-2.21-.452-6.315.327-12.625.72-18.936 1.094m-92.009-46.431c0 7.823-.03 15.648.038 23.471.01 1.016.526 2.028.807 3.042.59-.752 1.33-1.431 1.745-2.27 6.047-12.227 12.141-24.433 17.92-36.785.54-1.154-.472-4.043-1.63-4.805-4.716-3.099-9.828-5.587-14.679-8.495-3.074-1.843-4.337-1.588-4.25 2.37.173 7.822.051 15.648.05 23.472m76.404 40.026c15.2-.916 28.954-1.817 42.718-2.525 3.281-.17 3.997-.925 2.4-4.03-6.462-12.549-12.726-25.2-19.09-37.799-.515-1.02-1.237-1.934-1.863-2.898-.825.92-1.837 1.731-2.448 2.777a6602.29 6602.29 0 0 0-23.232 40.094c-.697 1.214-.946 2.686-1.402 4.037 1.445.17 2.892.341 2.917.345m-45.955.208a.51.51 0 0 0-.002.038c6.808.381 13.62.714 20.424 1.161 3.405.226 4.75-.376 2.616-3.99a3464.254 3464.254 0 0 1-24.293-41.857c-1.73-3.025-2.654-3.293-4.282.078-6.216 12.876-12.497 25.725-18.997 38.459-2.04 3.995-.61 4.863 3.107 5.007 7.146.28 14.285.726 21.427 1.103m32.89-59.402c8.658 0 17.317-.063 25.974.03 3.612.038 4.587-.782 2.31-4.15a3048.28 3048.28 0 0 1-25.156-37.838c-1.764-2.696-2.809-3.127-4.809-.144-8.619 12.857-17.372 25.624-26.182 38.352-2.462 3.556-.426 3.757 2.388 3.75 8.491-.016 16.983-.004 25.475 0m.23 7.343c-8.483 0-16.969.126-25.448-.056-3.89-.085-4.193.977-2.336 4.131 8.6 14.615 17.128 29.273 25.516 44.012 2.027 3.564 3.034 2.806 4.738-.172 8.422-14.719 16.905-29.405 25.53-44.006 2.128-3.605.807-4.01-2.552-3.956-8.48.137-16.965.046-25.448.046m68.426 16.532c.001 11.665.197 23.334-.169 34.987-.07 2.262-1.77 5.413-3.672 6.532-20.673 12.155-41.497 24.054-62.418 35.776-1.72.965-4.915.977-6.632.017a3833.434 3833.434 0 0 1-62.888-35.976c-1.687-.986-3.24-3.81-3.259-5.796-.222-23.991-.236-47.987.018-71.978.022-2.072 1.82-5 3.642-6.042a3857.467 3857.467 0 0 1 64.114-35.809c1.744-.953 4.963-.93 6.681.057a3651.462 3651.462 0 0 1 61.171 35.932c1.691 1.016 3.213 3.809 3.262 5.814.3 12.155.15 24.323.15 36.486"/><path d="M120 10C59.346 10 10 59.346 10 120s49.346 110 110 110 110-49.346 110-110S180.654 10 120 10m0 230C53.832 240 0 186.168 0 120S53.832 0 120 0s120 53.832 120 120-53.832 120-120 120"/></g></svg>
